**harm	**harte	**silbe	**silbe	**rhyme	**timestamp	**phrase	**leadinstrument	**kern
*M4/4	*M4/4	*	*	*	*	*	*	*
*	*	*	*	*	*	*	*	*
*	*	*	*	*	*	*	*	*
*B-:	*B-:	*	*	*	*	*	*	*B-:
*	*	*	*	*	*	*	*	*
*	*	*	*	*	*	*	*	*
1r;	N	.	.	.	0	.	r	1r;
1r;	N	.	.	.	0.464	.	r	1r;
=1	=1	=1	=1	=1	=1	=1	=1	=1
1V7	F:7	.	.	.	1.74	.	r	1F 1a 1cc 1ee-
=2	=2	=2	=2	=2	=2	=2	=2	=2
1V7	F:7	.	.	.	3.015	.	r	1F 1a 1cc 1ee-
=3	=3	=3	=3	=3	=3	=3	=3	=3
1I	B-:maj	.	.	.	4.29	.	r	1B- 1dd 1ff
=4	=4	=4	=4	=4	=4	=4	=4	=4
1I	B-:maj	.	.	.	5.566	.	r	1B- 1dd 1ff
=5	=5	=5	=5	=5	=5	=5	=5	=5
*>Letter>A	*>Letter>A	*>Letter>A	*>Letter>A	*>Letter>A	*>Letter>A	*>Letter>A	*>Letter>A	*>Letter>A
*>Label>Verse	*>Label>Verse	*>Label>Verse	*>Label>Verse	*>Label>Verse	*>Label>Verse	*>Label>Verse	*>Label>Verse	*>Label>Verse
1I	B-:maj	You've	.	.	6.841	newline	voice	1B- 1dd 1ff
.	.	cut	.	.	.	.	.	.
.	.	out	.	.	.	.	.	.
.	.	_	.	.	.	.	.	.
.	.	your	.	.	.	.	.	.
.	.	dan	.	.	.	.	.	.
=6	=6	=6	=6	=6	=6	=6	=6	=6
1I	B-:maj	_	.	.	8.161	.	voice	1B- 1dd 1ff
.	.	cing,	.	.	.	.	.	.
.	.	.	.	.	.	.	.	.
.	.	.	.	.	.	.	.	.
.	.	and	.	.	.	.	.	.
.	.	_	.	.	.	.	.	.
.	.	you	.	.	.	.	.	.
=7	=7	=7	=7	=7	=7	=7	=7	=7
1V7	F:7	ne-	.	.	9.481	.	voice	1F 1a 1cc 1ee-
.	.	-ver	.	.	.	.	.	.
.	.	_	.	.	.	.	.	.
.	.	see	.	.	.	.	.	.
.	.	a	.	.	.	.	.	.
.	.	_	.	.	.	.	.	.
.	.	show	.	A	.	.	.	.
=8	=8	=8	=8	=8	=8	=8	=8	=8
1V7	F:7	_	.	.	10.801	.	voice	1F 1a 1cc 1ee-
.	.	.	.	.	.	.	.	.
.	.	.	.	.	.	.	.	.
.	.	.	.	.	.	.	.	.
.	.	Your	.	.	.	.	.	.
.	.	friends	.	.	.	.	.	.
=9	=9	=9	=9	=9	=9	=9	=9	=9
1V7	F:7	_	.	.	12.12	newline	voice	1F 1a 1cc 1ee-
.	.	come	.	.	.	.	.	.
.	.	by	.	.	.	.	.	.
.	.	to	.	.	.	.	.	.
=10	=10	=10	=10	=10	=10	=10	=10	=10
1V7	F:7	pick	.	.	13.426	.	voice	1F 1a 1cc 1ee-
.	.	you	.	.	.	.	.	.
.	.	up,	.	.	.	.	.	.
.	.	_	.	.	.	.	.	.
.	.	and	.	.	.	.	.	.
.	.	_	.	.	.	.	.	.
.	.	you	.	.	.	.	.	.
=11	=11	=11	=11	=11	=11	=11	=11	=11
1I	B-:maj	hard	.	.	14.733	.	voice	1B- 1dd 1ff
.	.	_	.	.	.	.	.	.
.	.	ly	.	.	.	.	.	.
.	.	e-	.	.	.	.	.	.
.	.	-ver	.	.	.	.	.	.
.	.	_	.	.	.	.	.	.
.	.	go	.	A	.	.	.	.
=12	=12	=12	=12	=12	=12	=12	=12	=12
1I	B-:maj	_	.	.	16.039	.	voice	1B- 1dd 1ff
.	.	.	.	.	.	.	.	.
.	.	.	.	.	.	.	.	.
.	.	It	.	.	.	.	.	.
.	.	seems	.	.	.	.	.	.
=13	=13	=13	=13	=13	=13	=13	=13	=13
1IV	E-:maj	_	.	.	17.345	newline	voice	1E- 1g 1b-
.	.	your	.	.	.	.	.	.
.	.	head	.	.	.	.	.	.
.	.	is	.	.	.	.	.	.
.	.	in	.	.	.	.	.	.
=14	=14	=14	=14	=14	=14	=14	=14	=14
1IV	E-:maj	_	.	.	18.665	.	voice	1E- 1g 1b-
.	.	the	.	.	.	.	.	.
.	.	clouds	.	.	.	.	.	.
.	.	_	.	.	.	.	.	.
.	.	a-	.	.	.	.	.	.
.	.	-bove	.	B	.	.	.	.
=15	=15	=15	=15	=15	=15	=15	=15	=15
1I	B-:maj	.	.	.	19.986	.	voice	1B- 1dd 1ff
.	.	.	.	.	.	.	.	.
=16	=16	=16	=16	=16	=16	=16	=16	=16
1I	B-:maj	.	.	.	21.306	.	voice	1B- 1dd 1ff
.	.	you've	.	.	.	.	.	.
.	.	got	.	.	.	.	.	.
.	.	the	.	.	.	.	.	.
.	.	ways	.	.	.	.	.	.
=17	=17	=17	=17	=17	=17	=17	=17	=17
1I	B-:maj	_	.	.	22.627	newline	voice	1B- 1dd 1ff
.	.	.	(you've	.	.	.	.	.
.	.	.	got	.	.	.	.	.
.	.	_	the	.	.	.	.	.
.	.	.	.	.	.	.	.	.
=18	=18	=18	=18	=18	=18	=18	=18	=18
1V7	F:7	.	ways)	.	23.955	.	voice	1F 1a 1cc 1ee-
.	.	of	.	.	.	.	.	.
.	.	a	.	.	.	.	.	.
.	.	wo-	.	.	.	.	.	.
.	.	-man	.	.	.	.	.	.
.	.	in	.	.	.	.	.	.
=19	=19	=19	=19	=19	=19	=19	=19	=19
1I	B-:maj	love.	.	B	25.282	.	voice	1B- 1dd 1ff
.	.	.	(In	.	.	.	.	.
=20	=20	=20	=20	=20	=20	=20	=20	=20
1I	B-:maj	.	love...)	.	26.61	.	voice	1B- 1dd 1ff
.	.	.	.	.	.	.	.	.
=21	=21	=21	=21	=21	=21	=21	=21	=21
*>Letter>A	*>Letter>A	*>Letter>A	*>Letter>A	*>Letter>A	*>Letter>A	*>Letter>A	*>Letter>A	*>Letter>A
*>Label>Verse	*>Label>Verse	*>Label>Verse	*>Label>Verse	*>Label>Verse	*>Label>Verse	*>Label>Verse	*>Label>Verse	*>Label>Verse
1I	B-:maj	I	.	.	27.938	newline	voice	1B- 1dd 1ff
.	.	walked	.	.	.	.	.	.
.	.	_	.	.	.	.	.	.
.	.	by	.	.	.	.	.	.
.	.	your	.	.	.	.	.	.
.	.	house	.	.	.	.	.	.
=22	=22	=22	=22	=22	=22	=22	=22	=22
1I	B-:maj	_	.	.	29.266	.	voice	1B- 1dd 1ff
.	.	to-	.	.	.	.	.	.
.	.	-night	.	C	.	.	.	.
.	.	_	.	.	.	.	.	.
.	.	and	.	.	.	.	.	.
=23	=23	=23	=23	=23	=23	=23	=23	=23
1V7	F:7	hoped	.	.	30.594	.	voice	1F 1a 1cc 1ee-
.	.	that	.	.	.	.	.	.
.	.	I	.	.	.	.	.	.
.	.	_	.	.	.	.	.	.
.	.	might	.	C	.	.	.	.
.	.	see	.	D	.	.	.	.
=24	=24	=24	=24	=24	=24	=24	=24	=24
1V7	F:7	.	.	.	31.922	.	voice	1F 1a 1cc 1ee-
.	.	.	.	.	.	.	.	.
.	.	.	.	.	.	.	.	.
.	.	the	.	.	.	.	.	.
.	.	guy	.	.	.	.	.	.
=25	=25	=25	=25	=25	=25	=25	=25	=25
1V7	F:7	_	.	.	33.25	newline	voice	1F 1a 1cc 1ee-
.	.	who's	.	.	.	.	.	.
.	.	got	.	.	.	.	.	.
.	.	you	.	.	.	.	.	.
.	.	_	.	.	.	.	.	.
.	.	in	.	E	.	.	.	.
=26	=26	=26	=26	=26	=26	=26	=26	=26
1V7	F:7	_	.	.	34.568	.	voice	1F 1a 1cc 1ee-
.	.	a	.	.	.	.	.	.
.	.	spin,	.	E	.	.	.	.
.	.	I	.	.	.	.	.	.
.	.	wish	.	.	.	.	.	.
=27	=27	=27	=27	=27	=27	=27	=27	=27
1I	B-:maj	_	.	.	35.887	.	voice	1B- 1dd 1ff
.	.	that	.	.	.	.	.	.
.	.	guy	.	.	.	.	.	.
.	.	was	.	.	.	.	.	.
=28	=28	=28	=28	=28	=28	=28	=28	=28
1I	B-:maj	me!	.	D	37.205	.	voice	1B- 1dd 1ff
.	.	.	.	.	.	.	.	.
.	.	.	.	.	.	.	.	.
.	.	I	.	.	.	.	.	.
.	.	don't	.	.	.	.	.	.
=29	=29	=29	=29	=29	=29	=29	=29	=29
1IV	E-:maj	_	.	.	38.523	newline	voice	1E- 1g 1b-
.	.	know	.	.	.	.	.	.
.	.	why	.	.	.	.	.	.
.	.	it's	.	.	.	.	.	.
.	.	you	.	.	.	.	.	.
=30	=30	=30	=30	=30	=30	=30	=30	=30
1IV	E-:maj	_	.	.	39.855	.	voice	1E- 1g 1b-
.	.	I'm	.	.	.	.	.	.
.	.	_	.	.	.	.	.	.
.	.	drea-	.	.	.	.	.	.
.	.	-ming	.	.	.	.	.	.
.	.	of	.	B	.	.	.	.
=31	=31	=31	=31	=31	=31	=31	=31	=31
1I	B-:maj	.	.	.	41.188	.	voice	1B- 1dd 1ff
.	.	.	.	.	.	.	.	.
=32	=32	=32	=32	=32	=32	=32	=32	=32
1I	B-:maj	.	.	.	42.52	.	voice	1B- 1dd 1ff
.	.	you've	.	.	.	.	.	.
.	.	got	.	.	.	.	.	.
.	.	the	.	.	.	.	.	.
.	.	ways	.	.	.	.	.	.
=33	=33	=33	=33	=33	=33	=33	=33	=33
1I	B-:maj	_	.	.	43.852	newline	voice	1B- 1dd 1ff
.	.	.	(you've	.	.	.	.	.
.	.	.	got	.	.	.	.	.
.	.	_	the	.	.	.	.	.
.	.	.	.	.	.	.	.	.
=34	=34	=34	=34	=34	=34	=34	=34	=34
1V7	F:7	.	ways)	.	45.171	.	voice	1F 1a 1cc 1ee-
.	.	of	.	.	.	.	.	.
.	.	a	.	.	.	.	.	.
.	.	wo-	.	.	.	.	.	.
.	.	-man	.	.	.	.	.	.
.	.	in	.	.	.	.	.	.
=35	=35	=35	=35	=35	=35	=35	=35	=35
1I	B-:maj	love.	.	B	46.49	.	voice	1B- 1dd 1ff
.	.	.	(In	.	.	.	.	.
=36	=36	=36	=36	=36	=36	=36	=36	=36
1I	B-:maj	.	love...)	.	47.808	.	voice	1B- 1dd 1ff
.	.	.	.	.	.	.	.	.
=37	=37	=37	=37	=37	=37	=37	=37	=37
*>Letter>B	*>Letter>B	*>Letter>B	*>Letter>B	*>Letter>B	*>Letter>B	*>Letter>B	*>Letter>B	*>Letter>B
*>Label>Bridge	*>Label>Bridge	*>Label>Bridge	*>Label>Bridge	*>Label>Bridge	*>Label>Bridge	*>Label>Bridge	*>Label>Bridge	*>Label>Bridge
1IV	E-:maj	Ma-	.	.	49.127	newline	voice	1E- 1g 1b-
.	.	-ny	.	.	.	.	.	.
.	.	_	.	.	.	.	.	.
.	.	is	.	.	.	.	.	.
.	.	the	.	.	.	.	.	.
.	.	night	.	C	.	.	.	.
=38	=38	=38	=38	=38	=38	=38	=38	=38
1IV	E-:maj	_	.	.	50.438	.	voice	1E- 1g 1b-
.	.	_	.	.	.	.	.	.
.	.	I've	.	.	.	.	.	.
.	.	_	.	.	.	.	.	.
=39	=39	=39	=39	=39	=39	=39	=39	=39
1I	B-:maj	stayed	.	.	51.748	.	voice	1B- 1dd 1ff
.	.	a-	.	.	.	.	.	.
.	.	-wake	.	.	.	.	.	.
.	.	_	.	.	.	.	.	.
.	.	and	.	.	.	.	.	.
.	.	_	.	.	.	.	.	.
=40	=40	=40	=40	=40	=40	=40	=40	=40
1I	B-:maj	cried	.	C	53.059	.	voice	1B- 1dd 1ff
.	.	.	.	.	.	.	.	.
.	.	.	.	.	.	.	.	.
.	.	.	.	.	.	.	.	.
=41	=41	=41	=41	=41	=41	=41	=41	=41
1IV	E-:maj	Now	.	.	54.369	newline	voice	1E- 1g 1b-
.	.	you'll	.	.	.	.	.	.
.	.	ne-	.	.	.	.	.	.
.	.	-ver	.	.	.	.	.	.
.	.	_	.	.	.	.	.	.
.	.	know	.	.	.	.	.	.
=42	=42	=42	=42	=42	=42	=42	=42	=42
1IV	E-:maj	_	.	.	55.692	.	voice	1E- 1g 1b-
.	.	how	.	.	.	.	.	.
.	.	_	.	.	.	.	.	.
.	.	much	.	.	.	.	.	.
.	.	_	.	.	.	.	.	.
.	.	you	.	.	.	.	.	.
.	.	_	.	.	.	.	.	.
.	.	hurt	.	.	.	.	.	.
=43	=43	=43	=43	=43	=43	=43	=43	=43
1I	B-:maj	_	.	.	57.015	.	voice	1B- 1dd 1ff
.	.	my	.	.	.	.	.	.
.	.	foo-	.	.	.	.	.	.
.	.	-lish	.	.	.	.	.	.
=44	=44	=44	=44	=44	=44	=44	=44	=44
1V7	F:7	pride...	.	C	58.337	.	voice	1F 1a 1cc 1ee-
.	.	.	.	.	.	.	.	.
=45	=45	=45	=45	=45	=45	=45	=45	=45
1V7	F:7	.	.	.	59.66	.	voice	1F 1a 1cc 1ee-
=46	=46	=46	=46	=46	=46	=46	=46	=46
*>Letter>A	*>Letter>A	*>Letter>A	*>Letter>A	*>Letter>A	*>Letter>A	*>Letter>A	*>Letter>A	*>Letter>A
*>Label>Verse	*>Label>Verse	*>Label>Verse	*>Label>Verse	*>Label>Verse	*>Label>Verse	*>Label>Verse	*>Label>Verse	*>Label>Verse
1I	B-:maj	I	.	.	60.982	newline	voice	1B- 1dd 1ff
.	.	re-	.	.	.	.	.	.
.	.	-call	.	.	.	.	.	.
.	.	_	.	.	.	.	.	.
.	.	your	.	.	.	.	.	.
=47	=47	=47	=47	=47	=47	=47	=47	=47
1I	B-:maj	kis-	.	.	62.311	.	voice	1B- 1dd 1ff
.	.	-ses,	.	.	.	.	.	.
.	.	_	.	.	.	.	.	.
.	.	.	.	.	.	.	.	.
.	.	the	.	.	.	.	.	.
.	.	times	.	.	.	.	.	.
=48	=48	=48	=48	=48	=48	=48	=48	=48
1V7	F:7	_	.	.	63.64	.	voice	1F 1a 1cc 1ee-
.	.	I	.	.	.	.	.	.
.	.	held	.	.	.	.	.	.
.	.	you	.	.	.	.	.	.
.	.	tight,	.	C	.	.	.	.
=49	=49	=49	=49	=49	=49	=49	=49	=49
1V7	F:7	_	.	.	64.97	.	voice	1F 1a 1cc 1ee-
.	.	.	.	.	.	.	.	.
.	.	.	.	.	.	.	.	.
.	.	now	.	.	.	.	.	.
=50	=50	=50	=50	=50	=50	=50	=50	=50
1V7	F:7	when	.	.	66.299	newline	voice	1F 1a 1cc 1ee-
.	.	I	.	.	.	.	.	.
.	.	_	.	.	.	.	.	.
.	.	come	.	.	.	.	.	.
.	.	to	.	.	.	.	.	.
=51	=51	=51	=51	=51	=51	=51	=51	=51
1V7	F:7	see	.	.	67.617	.	voice	1F 1a 1cc 1ee-
.	.	you,	.	.	.	.	.	.
.	.	_	.	.	.	.	.	.
.	.	.	.	.	.	.	.	.
.	.	you're	.	.	.	.	.	.
=52	=52	=52	=52	=52	=52	=52	=52	=52
1I	B-:maj	sit-	.	.	68.935	.	voice	1B- 1dd 1ff
.	.	-ting	.	.	.	.	.	.
.	.	_	.	.	.	.	.	.
.	.	in	.	.	.	.	.	.
.	.	_	.	.	.	.	.	.
.	.	the	.	.	.	.	.	.
.	.	light	.	C	.	.	.	.
=53	=53	=53	=53	=53	=53	=53	=53	=53
1I	B-:maj	_	.	.	70.253	.	voice	1B- 1dd 1ff
.	.	.	.	.	.	.	.	.
.	.	.	.	.	.	.	.	.
=54	=54	=54	=54	=54	=54	=54	=54	=54
1IV	E-:maj	Mis-	.	.	71.571	newline	voice	1E- 1g 1b-
.	.	-sing	.	.	.	.	.	.
.	.	_	.	.	.	.	.	.
.	.	all	.	.	.	.	.	.
.	.	_	.	.	.	.	.	.
.	.	the	.	.	.	.	.	.
.	.	things	.	.	.	.	.	.
=55	=55	=55	=55	=55	=55	=55	=55	=55
1IV	E-:maj	_	.	.	72.895	.	voice	1E- 1g 1b-
.	.	that	.	.	.	.	.	.
.	.	we	.	.	.	.	.	.
.	.	_	.	.	.	.	.	.
.	.	dreamed	.	.	.	.	.	.
=56	=56	=56	=56	=56	=56	=56	=56	=56
1I	B-:maj	of...	.	B	74.218	.	voice	1B- 1dd 1ff
=57	=57	=57	=57	=57	=57	=57	=57	=57
1I	B-:maj	.	.	.	75.541	.	voice	1B- 1dd 1ff
.	.	you've	.	.	.	.	.	.
.	.	got	.	.	.	.	.	.
.	.	the	.	.	.	.	.	.
.	.	ways	.	.	.	.	.	.
=58	=58	=58	=58	=58	=58	=58	=58	=58
1I	B-:maj	_	.	.	76.865	newline	voice	1B- 1dd 1ff
.	.	.	(you've	.	.	.	.	.
.	.	.	got	.	.	.	.	.
.	.	_	the	.	.	.	.	.
.	.	.	.	.	.	.	.	.
=59	=59	=59	=59	=59	=59	=59	=59	=59
1V7	F:7	.	ways)	.	78.191	.	voice	1F 1a 1cc 1ee-
.	.	of	.	.	.	.	.	.
.	.	a	.	.	.	.	.	.
.	.	wo-	.	.	.	.	.	.
.	.	-man	.	.	.	.	.	.
.	.	in	.	.	.	.	.	.
=60	=60	=60	=60	=60	=60	=60	=60	=60
1I	B-:maj	love.	.	B	79.517	.	voice	1B- 1dd 1ff
.	.	.	(In	.	.	.	.	.
=61	=61	=61	=61	=61	=61	=61	=61	=61
1I	B-:maj	.	love...)	.	80.844	.	voice	1B- 1dd 1ff
.	.	.	.	.	.	.	.	.
=62	=62	=62	=62	=62	=62	=62	=62	=62
*>Letter>A2	*>Letter>A2	*>Letter>A2	*>Letter>A2	*>Letter>A2	*>Letter>A2	*>Letter>A2	*>Letter>A2	*>Letter>A2
*>Label>Solo	*>Label>Solo	*>Label>Solo	*>Label>Solo	*>Label>Solo	*>Label>Solo	*>Label>Solo	*>Label>Solo	*>Label>Solo
1IV	E-:maj	.	.	.	82.17	newline	piano	1E- 1g 1b-
=63	=63	=63	=63	=63	=63	=63	=63	=63
1IV	E-:maj	.	.	.	83.479	.	piano	1E- 1g 1b-
=64	=64	=64	=64	=64	=64	=64	=64	=64
1I	B-:maj	.	.	.	84.787	.	piano	1B- 1dd 1ff
=65	=65	=65	=65	=65	=65	=65	=65	=65
1I	B-:maj	.	.	.	86.096	.	piano	1B- 1dd 1ff
=66	=66	=66	=66	=66	=66	=66	=66	=66
1I	B-:maj	.	.	.	87.405	newline	piano	1B- 1dd 1ff
=67	=67	=67	=67	=67	=67	=67	=67	=67
1V7	F:7	.	.	.	88.726	.	piano	1F 1a 1cc 1ee-
=68	=68	=68	=68	=68	=68	=68	=68	=68
1I	B-:maj	.	.	.	90.048	.	piano	1B- 1dd 1ff
=69	=69	=69	=69	=69	=69	=69	=69	=69
1I	B-:maj	.	.	.	91.369	.	piano	1B- 1dd 1ff
=70	=70	=70	=70	=70	=70	=70	=70	=70
*>Letter>B	*>Letter>B	*>Letter>B	*>Letter>B	*>Letter>B	*>Letter>B	*>Letter>B	*>Letter>B	*>Letter>B
*>Label>Bridge	*>Label>Bridge	*>Label>Bridge	*>Label>Bridge	*>Label>Bridge	*>Label>Bridge	*>Label>Bridge	*>Label>Bridge	*>Label>Bridge
1IV	E-:maj	Ma-	.	.	92.691	newline	voice	1E- 1g 1b-
.	.	-ny	.	.	.	.	.	.
.	.	_	.	.	.	.	.	.
.	.	is	.	.	.	.	.	.
.	.	the	.	.	.	.	.	.
.	.	night	.	C	.	.	.	.
=71	=71	=71	=71	=71	=71	=71	=71	=71
1IV	E-:maj	_	.	.	94.027	.	voice	1E- 1g 1b-
.	.	_	.	.	.	.	.	.
.	.	I've	.	.	.	.	.	.
.	.	_	.	.	.	.	.	.
=72	=72	=72	=72	=72	=72	=72	=72	=72
1I	B-:maj	stayed	.	.	95.364	.	voice	1B- 1dd 1ff
.	.	a-	.	.	.	.	.	.
.	.	-wake	.	.	.	.	.	.
.	.	_	.	.	.	.	.	.
.	.	and	.	.	.	.	.	.
.	.	_	.	.	.	.	.	.
=73	=73	=73	=73	=73	=73	=73	=73	=73
1I	B-:maj	cried	.	C	96.701	.	voice	1B- 1dd 1ff
.	.	.	.	.	.	.	.	.
.	.	.	.	.	.	.	.	.
=74	=74	=74	=74	=74	=74	=74	=74	=74
1IV	E-:maj	Now	.	.	98.038	newline	voice	1E- 1g 1b-
.	.	you'll	.	.	.	.	.	.
.	.	ne-	.	.	.	.	.	.
.	.	-ver	.	.	.	.	.	.
.	.	_	.	.	.	.	.	.
.	.	know	.	.	.	.	.	.
=75	=75	=75	=75	=75	=75	=75	=75	=75
1IV	E-:maj	_	.	.	99.36	.	voice	1E- 1g 1b-
.	.	how	.	.	.	.	.	.
.	.	_	.	.	.	.	.	.
.	.	much	.	.	.	.	.	.
.	.	_	.	.	.	.	.	.
.	.	you	.	.	.	.	.	.
.	.	_	.	.	.	.	.	.
.	.	hurt	.	.	.	.	.	.
=76	=76	=76	=76	=76	=76	=76	=76	=76
1I	B-:maj	_	.	.	100.681	.	voice	1B- 1dd 1ff
.	.	my	.	.	.	.	.	.
.	.	foo-	.	.	.	.	.	.
.	.	-lish	.	.	.	.	.	.
=77	=77	=77	=77	=77	=77	=77	=77	=77
1V7	F:7	pride...	.	C	102.003	.	voice	1F 1a 1cc 1ee-
=78	=78	=78	=78	=78	=78	=78	=78	=78
1V7	F:7	.	.	.	103.325	.	voice	1F 1a 1cc 1ee-
=79	=79	=79	=79	=79	=79	=79	=79	=79
*>Letter>A	*>Letter>A	*>Letter>A	*>Letter>A	*>Letter>A	*>Letter>A	*>Letter>A	*>Letter>A	*>Letter>A
*>Label>Verse	*>Label>Verse	*>Label>Verse	*>Label>Verse	*>Label>Verse	*>Label>Verse	*>Label>Verse	*>Label>Verse	*>Label>Verse
1I	B-:maj	I	.	.	104.647	newline	voice	1B- 1dd 1ff
.	.	re-	.	.	.	.	.	.
.	.	-call	.	.	.	.	.	.
.	.	_	.	.	.	.	.	.
.	.	your	.	.	.	.	.	.
=80	=80	=80	=80	=80	=80	=80	=80	=80
1I	B-:maj	kis-	.	.	105.965	.	voice	1B- 1dd 1ff
.	.	-ses,	.	.	.	.	.	.
.	.	_	.	.	.	.	.	.
.	.	.	.	.	.	.	.	.
.	.	the	.	.	.	.	.	.
.	.	times	.	.	.	.	.	.
=81	=81	=81	=81	=81	=81	=81	=81	=81
1V7	F:7	_	.	.	107.284	.	voice	1F 1a 1cc 1ee-
.	.	I	.	.	.	.	.	.
.	.	held	.	.	.	.	.	.
.	.	you	.	.	.	.	.	.
.	.	tight,	.	C	.	.	.	.
=82	=82	=82	=82	=82	=82	=82	=82	=82
1V7	F:7	_	.	.	108.603	.	voice	1F 1a 1cc 1ee-
.	.	.	.	.	.	.	.	.
.	.	.	.	.	.	.	.	.
.	.	now	.	.	.	.	.	.
=83	=83	=83	=83	=83	=83	=83	=83	=83
1V7	F:7	when	.	.	109.921	newline	voice	1F 1a 1cc 1ee-
.	.	I	.	.	.	.	.	.
.	.	_	.	.	.	.	.	.
.	.	come	.	.	.	.	.	.
.	.	to	.	.	.	.	.	.
=84	=84	=84	=84	=84	=84	=84	=84	=84
1V7	F:7	see	.	.	111.262	.	voice	1F 1a 1cc 1ee-
.	.	you,	.	.	.	.	.	.
.	.	_	.	.	.	.	.	.
.	.	.	.	.	.	.	.	.
.	.	you're	.	.	.	.	.	.
=85	=85	=85	=85	=85	=85	=85	=85	=85
1I	B-:maj	sit-	.	.	112.603	.	voice	1B- 1dd 1ff
.	.	-ting	.	.	.	.	.	.
.	.	_	.	.	.	.	.	.
.	.	in	.	.	.	.	.	.
.	.	_	.	.	.	.	.	.
.	.	the	.	.	.	.	.	.
.	.	light	.	C	.	.	.	.
=86	=86	=86	=86	=86	=86	=86	=86	=86
1I	B-:maj	_	.	.	113.944	.	voice	1B- 1dd 1ff
.	.	.	.	.	.	.	.	.
.	.	.	.	.	.	.	.	.
=87	=87	=87	=87	=87	=87	=87	=87	=87
1IV	E-:maj	Mis-	.	.	115.285	newline	voice	1E- 1g 1b-
.	.	-sing	.	.	.	.	.	.
.	.	_	.	.	.	.	.	.
.	.	all	.	.	.	.	.	.
.	.	_	.	.	.	.	.	.
.	.	the	.	.	.	.	.	.
.	.	things	.	.	.	.	.	.
=88	=88	=88	=88	=88	=88	=88	=88	=88
1IV	E-:maj	_	.	.	116.604	.	voice	1E- 1g 1b-
.	.	that	.	.	.	.	.	.
.	.	we	.	.	.	.	.	.
.	.	_	.	.	.	.	.	.
.	.	dreamed	.	.	.	.	.	.
=89	=89	=89	=89	=89	=89	=89	=89	=89
1I	B-:maj	of...	.	B	117.922	.	voice	1B- 1dd 1ff
=90	=90	=90	=90	=90	=90	=90	=90	=90
1I	B-:maj	.	.	.	119.241	.	voice	1B- 1dd 1ff
.	.	You've	.	.	.	.	.	.
.	.	got	.	.	.	.	.	.
.	.	the	.	.	.	.	.	.
.	.	ways	.	.	.	.	.	.
=91	=91	=91	=91	=91	=91	=91	=91	=91
1I	B-:maj	_	.	.	120.559	newline	voice	1B- 1dd 1ff
.	.	.	(you've	.	.	.	.	.
.	.	.	got	.	.	.	.	.
.	.	_	the	.	.	.	.	.
.	.	.	.	.	.	.	.	.
=92	=92	=92	=92	=92	=92	=92	=92	=92
1V7	F:7	.	ways)	.	121.885	.	voice	1F 1a 1cc 1ee-
.	.	of	.	.	.	.	.	.
.	.	a	.	.	.	.	.	.
.	.	wo-	.	.	.	.	.	.
.	.	-man	.	.	.	.	.	.
.	.	in	.	.	.	.	.	.
=93	=93	=93	=93	=93	=93	=93	=93	=93
1I	B-:maj	love.	.	B	123.212	.	voice	1B- 1dd 1ff
.	.	.	(In	.	.	.	.	.
=94	=94	=94	=94	=94	=94	=94	=94	=94
1I	B-:maj	.	love...)	.	124.538	.	voice	1B- 1dd 1ff
.	.	You've	.	.	.	.	.	.
.	.	got	.	.	.	.	.	.
.	.	the	.	.	.	.	.	.
.	.	ways	.	.	.	.	.	.
=95	=95	=95	=95	=95	=95	=95	=95	=95
1I	B-:maj	_	.	.	125.864	newline	voice	1B- 1dd 1ff
.	.	.	(you've	.	.	.	.	.
.	.	.	got	.	.	.	.	.
.	.	_	the	.	.	.	.	.
.	.	.	.	.	.	.	.	.
=96	=96	=96	=96	=96	=96	=96	=96	=96
1V7	F:7	.	ways)	.	127.177	.	voice	1F 1a 1cc 1ee-
.	.	of	.	.	.	.	.	.
.	.	a	.	.	.	.	.	.
.	.	wo-	.	.	.	.	.	.
.	.	-man	.	.	.	.	.	.
.	.	in	.	.	.	.	.	.
=97	=97	=97	=97	=97	=97	=97	=97	=97
1I	B-:maj	love.	.	B	128.491	.	voice	1B- 1dd 1ff
.	.	.	(In	.	.	.	.	.
=98	=98	=98	=98	=98	=98	=98	=98	=98
1I	B-:maj	.	love...)	.	129.804	.	voice	1B- 1dd 1ff
1r;	N	.	.	.	133.909	.	r	1r;
1r;	N	.	.	.	136.725	.	r	1r;
*-	*-	*-	*-	*-	*-	*-	*-	*-
!!!BillboardChartDate: 1958/09/01
!!!BillboardPeak: 24
!!!BillboardWeeksOnChart: 11
!!!COC: Johnny Cash
!!!ENC: Nathaniel Condit-Schultz
!!!EST: Awating manual error checking and editing.
!!!OTL: The Ways Of A Woman In Love
!!!RDF**harte: Chris Harte's syntax, used by MIREX
!!!RDF**harmony: **recip + pitch class of root + harmonic quality
!!!RDF**leadinstrument: original McGill primary instrumentation annotation
!!!RDF**phrase: newline = linebreak in original McGill transcription
!!!RDF**timestamp: McGill audio timestamp in seconds
!!!RDT: 2017/01/12/
!!!SampleActualRank: 58
!!!SampleID#: 0787
!!!SampleTargetRank: 58
!!!MBID: a770e29a-63cc-45fe-a1b6-e5201fed31a8
